X:1
T:Dotted Rhythm Test
M:4/4
L:1/8
K:C
C3DE2F2|G3AB2c2|d3cB2A2|G6z2|C/D/E/F/G2A/B/c/d/e2|f4e2d2|c3BA2G2|C6z2|
